X:1
T:Ur, CMD
T:Ur, CMD
T:Lowell Mason, 1841
T:Public Domain Courtesy of the Cyber Hymnal™
C:Lowell Mason, 1841
Z:Public Domain
Z:Courtesy of the Cyber Hymnal™
%%score ( 1 2 ) ( 3 4 )
L:1/8
Q:1/4=102
M:3/4
K:D
V:1 treble 
V:2 treble 
V:3 bass 
V:4 bass 
V:1
 D2 | D>D FA FD | A3 [Fd] [Gd][Fd] | ([Ec]>[Fd] [Ge]2) [Ec]2 | [Fd]4 D2 | D>D FA FD | %6
 A3 [Ec] [Ec][Ec] | (B>c d2) [E^G]2 | !fermata![EA]3 F FF | B3 E EE | A3 D DD | %11
 ([CE]>[DF] [EG]2) [DF]2 | [DF]2 [CE]2 [CE]2 | [DF]>[EG] [FA]2 [FA]2 | %14
 [GB]>[Ac] ([ce][Bd]) ([Ac][GB]) | [FA][EG] [DF]2 [CE]2 | D6 |] %17
V:2
 D2 | D>D FA FD | A3 x3 | x6 | x4 D2 | D>D FA FD | A3 x3 | E4 x2 | x3 F FF | B3 E EE | A3 D DD | %11
 x6 | x6 | x6 | x6 | x6 | D6 |] %17
V:3
 D,2 | D,>D, F,A, F,D, | A,3 [D,A,] [F,D][D,A,] | A,4 [A,,A,]2 | [D,A,]4 D,2 | D,>D, F,A, F,D, | %6
 A,3 [A,,A,] [C,A,][A,,A,] | (^G,>A, B,2) [E,D]2 | !fermata![A,,C]3 F, F,F, | B,3 E, E,E, | %10
 A,3 [F,A,] [G,B,][F,A,] | A,4 [D,A,]2 | A,4 [A,,A,]2 | [D,A,]>[D,A,] [D,A,]2 [D,D]2 | %14
 [D,D]>[D,D] [D,A,]2 [D,D]2 | [D,D][G,,B,] [A,,A,]2 (A,G,) | [D,F,]6 |] %17
V:4
 D,2 | D,>D, F,A, F,D, | A,3 x3 | A,4 x2 | x4 D,2 | D,>D, F,A, F,D, | A,3 x3 | E,4 x2 | %8
 x3 F, F,F, | B,3 E, E,E, | x6 | (E,>D, C,2) x2 | A,4 x2 | x6 | x6 | x4 A,,2 | x6 |] %17

